X: 43199
T: Wishing Well, The
R: jig
M: 6/8
K: Dmajor
|:DFA d2e|fdB BAF|B3 BAF|dAF GFE|
DFA d2e|fdB BAF|BAF dBA|fae [1 dAF:|2 d2||
|:B|Adf a^ga|baf afd|f2g afd|Bdg bge|
Adf a^ga|baf afd|b2a afd|Ace d2:|
|:e|f2d edc|dge fdB|c2B cAA|a^ga ba=g|
f2d edc|dge fdA|FAD GBD|Adc [1 d2:|2 dAF||

